images/3233155.svg

<?xml version="1.0" encoding="UTF-8"?>
<svg xmlns="http://www.w3.org/2000/svg" xmlns:xlink="http://www.w3.org/1999/xlink" width="300pt" height="300pt" viewBox="0 0 300 300" version="1.1">
<defs>
<g>
<symbol overflow="visible" id="glyph0-0">
<path style="stroke:none;" d="M 0.640625 2.296875 L 0.640625 -9.171875 L 7.140625 -9.171875 L 7.140625 2.296875 Z M 1.375 1.578125 L 6.421875 1.578125 L 6.421875 -8.4375 L 1.375 -8.4375 Z M 1.375 1.578125 "/>
</symbol>
<symbol overflow="visible" id="glyph0-1">
<path style="stroke:none;" d="M 1.28125 -9.484375 L 3 -9.484375 L 7.203125 -1.546875 L 7.203125 -9.484375 L 8.453125 -9.484375 L 8.453125 0 L 6.71875 0 L 2.515625 -7.921875 L 2.515625 0 L 1.28125 0 Z M 1.28125 -9.484375 "/>
</symbol>
<symbol overflow="visible" id="glyph0-2">
<path style="stroke:none;" d="M 5.125 -8.609375 C 4.1875 -8.609375 3.441406 -8.257812 2.890625 -7.5625 C 2.347656 -6.875 2.078125 -5.929688 2.078125 -4.734375 C 2.078125 -3.535156 2.347656 -2.585938 2.890625 -1.890625 C 3.441406 -1.203125 4.1875 -0.859375 5.125 -0.859375 C 6.050781 -0.859375 6.785156 -1.203125 7.328125 -1.890625 C 7.878906 -2.585938 8.15625 -3.535156 8.15625 -4.734375 C 8.15625 -5.929688 7.878906 -6.875 7.328125 -7.5625 C 6.785156 -8.257812 6.050781 -8.609375 5.125 -8.609375 Z M 5.125 -9.65625 C 6.445312 -9.65625 7.503906 -9.207031 8.296875 -8.3125 C 9.097656 -7.414062 9.5 -6.222656 9.5 -4.734375 C 9.5 -3.234375 9.097656 -2.035156 8.296875 -1.140625 C 7.503906 -0.253906 6.445312 0.1875 5.125 0.1875 C 3.789062 0.1875 2.722656 -0.253906 1.921875 -1.140625 C 1.128906 -2.035156 0.734375 -3.234375 0.734375 -4.734375 C 0.734375 -6.222656 1.128906 -7.414062 1.921875 -8.3125 C 2.722656 -9.207031 3.789062 -9.65625 5.125 -9.65625 Z M 5.125 -9.65625 "/>
</symbol>
<symbol overflow="visible" id="glyph0-3">
<path style="stroke:none;" d="M 1.28125 -9.484375 L 2.5625 -9.484375 L 2.5625 -5.59375 L 7.21875 -5.59375 L 7.21875 -9.484375 L 8.5 -9.484375 L 8.5 0 L 7.21875 0 L 7.21875 -4.515625 L 2.5625 -4.515625 L 2.5625 0 L 1.28125 0 Z M 1.28125 -9.484375 "/>
</symbol>
<symbol overflow="visible" id="glyph0-4">
<path style="stroke:none;" d="M 1.28125 -9.484375 L 6.71875 -9.484375 L 6.71875 -8.390625 L 2.5625 -8.390625 L 2.5625 -5.609375 L 6.3125 -5.609375 L 6.3125 -4.53125 L 2.5625 -4.53125 L 2.5625 0 L 1.28125 0 Z M 1.28125 -9.484375 "/>
</symbol>
</g>
</defs>
<g id="surface33441">
<rect x="0" y="0" width="300" height="300" style="fill:rgb(100%,100%,100%);fill-opacity:1;stroke:none;"/>
<path style="fill:none;stroke-width:1.2;stroke-linecap:butt;stroke-linejoin:miter;stroke:rgb(0%,0%,0%);stroke-opacity:1;stroke-miterlimit:10;" d="M 142.160156 202.191406 L 108.867188 198.011719 "/>
<path style="fill:none;stroke-width:1.2;stroke-linecap:butt;stroke-linejoin:miter;stroke:rgb(0%,0%,0%);stroke-opacity:1;stroke-miterlimit:10;" d="M 108.867188 198.011719 L 92.679688 168.621094 "/>
<path style="fill:none;stroke-width:1.2;stroke-linecap:butt;stroke-linejoin:miter;stroke:rgb(0%,0%,0%);stroke-opacity:1;stroke-miterlimit:10;" d="M 100.332031 198.882812 L 87.382812 175.371094 "/>
<path style="fill:none;stroke-width:1.2;stroke-linecap:butt;stroke-linejoin:miter;stroke:rgb(100%,0%,0%);stroke-opacity:1;stroke-miterlimit:10;" d="M 85.917969 222.488281 L 97.394531 210.25 "/>
<path style="fill:none;stroke-width:1.2;stroke-linecap:butt;stroke-linejoin:miter;stroke:rgb(0%,0%,0%);stroke-opacity:1;stroke-miterlimit:10;" d="M 97.394531 210.25 L 108.867188 198.011719 "/>
<path style="fill:none;stroke-width:1.2;stroke-linecap:butt;stroke-linejoin:miter;stroke:rgb(0%,0%,0%);stroke-opacity:1;stroke-miterlimit:10;" d="M 92.679688 168.621094 L 59.726562 174.9375 "/>
<path style="fill:none;stroke-width:1.2;stroke-linecap:butt;stroke-linejoin:miter;stroke:rgb(0%,0%,0%);stroke-opacity:1;stroke-miterlimit:10;" d="M 92.679688 168.621094 L 106.941406 138.253906 "/>
<path style="fill:none;stroke-width:1.2;stroke-linecap:butt;stroke-linejoin:miter;stroke:rgb(0%,0%,0%);stroke-opacity:1;stroke-miterlimit:10;" d="M 59.726562 174.9375 L 57.636719 191.582031 "/>
<path style="fill:none;stroke-width:1.2;stroke-linecap:butt;stroke-linejoin:miter;stroke:rgb(0%,0%,100%);stroke-opacity:1;stroke-miterlimit:10;" d="M 57.636719 191.582031 L 55.550781 208.226562 "/>
<path style="fill:none;stroke-width:1.2;stroke-linecap:butt;stroke-linejoin:miter;stroke:rgb(0%,0%,0%);stroke-opacity:1;stroke-miterlimit:10;" d="M 67.140625 179.25 L 65.472656 192.566406 "/>
<path style="fill:none;stroke-width:1.2;stroke-linecap:butt;stroke-linejoin:miter;stroke:rgb(0%,0%,100%);stroke-opacity:1;stroke-miterlimit:10;" d="M 65.472656 192.566406 L 63.800781 205.882812 "/>
<path style="fill:none;stroke-width:1.2;stroke-linecap:butt;stroke-linejoin:miter;stroke:rgb(0%,0%,0%);stroke-opacity:1;stroke-miterlimit:10;" d="M 59.726562 174.9375 L 35.25 151.988281 "/>
<path style="fill:none;stroke-width:1.2;stroke-linecap:butt;stroke-linejoin:miter;stroke:rgb(0%,0%,100%);stroke-opacity:1;stroke-miterlimit:10;" d="M 55.550781 208.226562 L 70.734375 215.359375 "/>
<path style="fill:none;stroke-width:1.2;stroke-linecap:butt;stroke-linejoin:miter;stroke:rgb(100%,0%,0%);stroke-opacity:1;stroke-miterlimit:10;" d="M 70.734375 215.359375 L 85.917969 222.488281 "/>
<path style=" stroke:none;fill-rule:nonzero;fill:rgb(100%,100%,100%);fill-opacity:1;" d="M 50.550781 200.226562 L 60.550781 200.226562 L 60.550781 216.226562 L 50.550781 216.226562 Z M 50.550781 200.226562 "/>
<g style="fill:rgb(0%,0%,100%);fill-opacity:1;">
  <use xlink:href="#glyph0-1" x="50.550781" y="212.602539"/>
</g>
<path style=" stroke:none;fill-rule:nonzero;fill:rgb(100%,100%,100%);fill-opacity:1;" d="M 80.917969 214.488281 L 91.917969 214.488281 L 91.917969 230.488281 L 80.917969 230.488281 Z M 80.917969 214.488281 "/>
<g style="fill:rgb(100%,0%,0%);fill-opacity:1;">
  <use xlink:href="#glyph0-2" x="80.917969" y="226.864258"/>
</g>
<path style="fill:none;stroke-width:1.2;stroke-linecap:butt;stroke-linejoin:miter;stroke:rgb(0%,0%,0%);stroke-opacity:1;stroke-miterlimit:10;" d="M 106.941406 138.253906 L 140.371094 135.417969 "/>
<path style="fill:none;stroke-width:1.2;stroke-linecap:butt;stroke-linejoin:miter;stroke:rgb(0%,0%,0%);stroke-opacity:1;stroke-miterlimit:10;" d="M 109.617188 130.101562 L 136.363281 127.835938 "/>
<path style="fill:none;stroke-width:1.2;stroke-linecap:butt;stroke-linejoin:miter;stroke:rgb(0%,0%,100%);stroke-opacity:1;stroke-miterlimit:10;" d="M 87.769531 110.714844 L 97.355469 124.484375 "/>
<path style="fill:none;stroke-width:1.2;stroke-linecap:butt;stroke-linejoin:miter;stroke:rgb(0%,0%,0%);stroke-opacity:1;stroke-miterlimit:10;" d="M 97.355469 124.484375 L 106.941406 138.253906 "/>
<path style="fill:none;stroke-width:1.2;stroke-linecap:butt;stroke-linejoin:miter;stroke:rgb(0%,0%,0%);stroke-opacity:1;stroke-miterlimit:10;" d="M 140.371094 135.417969 L 154.632812 105.046875 "/>
<path style="fill:none;stroke-width:1.2;stroke-linecap:butt;stroke-linejoin:miter;stroke:rgb(0%,0%,0%);stroke-opacity:1;stroke-miterlimit:10;" d="M 154.632812 105.046875 L 145.046875 91.28125 "/>
<path style="fill:none;stroke-width:1.2;stroke-linecap:butt;stroke-linejoin:miter;stroke:rgb(0%,0%,100%);stroke-opacity:1;stroke-miterlimit:10;" d="M 145.046875 91.28125 L 135.464844 77.511719 "/>
<path style="fill:none;stroke-width:1.2;stroke-linecap:butt;stroke-linejoin:miter;stroke:rgb(0%,0%,0%);stroke-opacity:1;stroke-miterlimit:10;" d="M 146.238281 106.804688 L 138.570312 95.789062 "/>
<path style="fill:none;stroke-width:1.2;stroke-linecap:butt;stroke-linejoin:miter;stroke:rgb(0%,0%,100%);stroke-opacity:1;stroke-miterlimit:10;" d="M 138.570312 95.789062 L 130.902344 84.777344 "/>
<path style="fill:none;stroke-width:1.2;stroke-linecap:butt;stroke-linejoin:miter;stroke:rgb(0%,0%,0%);stroke-opacity:1;stroke-miterlimit:10;" d="M 154.632812 105.046875 L 171.351562 103.628906 "/>
<path style="fill:none;stroke-width:1.2;stroke-linecap:butt;stroke-linejoin:miter;stroke:rgb(0%,0%,100%);stroke-opacity:1;stroke-miterlimit:10;" d="M 171.351562 103.628906 L 188.066406 102.210938 "/>
<path style="fill:none;stroke-width:1.2;stroke-linecap:butt;stroke-linejoin:miter;stroke:rgb(0%,0%,100%);stroke-opacity:1;stroke-miterlimit:10;" d="M 135.464844 77.511719 L 118.746094 78.929688 "/>
<path style="fill:none;stroke-width:1.2;stroke-linecap:butt;stroke-linejoin:miter;stroke:rgb(0%,0%,0%);stroke-opacity:1;stroke-miterlimit:10;" d="M 118.746094 78.929688 L 102.03125 80.347656 "/>
<path style=" stroke:none;fill-rule:nonzero;fill:rgb(100%,100%,100%);fill-opacity:1;" d="M 130.464844 69.511719 L 140.464844 69.511719 L 140.464844 85.511719 L 130.464844 85.511719 Z M 130.464844 69.511719 "/>
<g style="fill:rgb(0%,0%,100%);fill-opacity:1;">
  <use xlink:href="#glyph0-1" x="130.464844" y="81.887695"/>
</g>
<path style="fill:none;stroke-width:1.2;stroke-linecap:butt;stroke-linejoin:miter;stroke:rgb(0%,0%,0%);stroke-opacity:1;stroke-miterlimit:10;" d="M 102.03125 80.347656 L 94.902344 95.53125 "/>
<path style="fill:none;stroke-width:1.2;stroke-linecap:butt;stroke-linejoin:miter;stroke:rgb(0%,0%,100%);stroke-opacity:1;stroke-miterlimit:10;" d="M 94.902344 95.53125 L 87.769531 110.714844 "/>
<path style="fill:none;stroke-width:1.2;stroke-linecap:butt;stroke-linejoin:miter;stroke:rgb(0%,0%,0%);stroke-opacity:1;stroke-miterlimit:10;" d="M 107.75 86.738281 L 102.046875 98.886719 "/>
<path style="fill:none;stroke-width:1.2;stroke-linecap:butt;stroke-linejoin:miter;stroke:rgb(0%,0%,100%);stroke-opacity:1;stroke-miterlimit:10;" d="M 102.046875 98.886719 L 96.34375 111.035156 "/>
<path style=" stroke:none;fill-rule:nonzero;fill:rgb(100%,100%,100%);fill-opacity:1;" d="M 82.769531 102.714844 L 92.769531 102.714844 L 92.769531 118.714844 L 82.769531 118.714844 Z M 82.769531 102.714844 "/>
<g style="fill:rgb(0%,0%,100%);fill-opacity:1;">
  <use xlink:href="#glyph0-1" x="82.769531" y="115.09082"/>
</g>
<path style="fill:none;stroke-width:1.2;stroke-linecap:butt;stroke-linejoin:miter;stroke:rgb(0%,0%,100%);stroke-opacity:1;stroke-miterlimit:10;" d="M 188.066406 102.210938 L 197.652344 115.980469 "/>
<path style="fill:none;stroke-width:1.2;stroke-linecap:butt;stroke-linejoin:miter;stroke:rgb(0%,0%,0%);stroke-opacity:1;stroke-miterlimit:10;" d="M 197.652344 115.980469 L 207.238281 129.75 "/>
<path style=" stroke:none;fill-rule:nonzero;fill:rgb(100%,100%,100%);fill-opacity:1;" d="M 178.066406 94.210938 L 198.066406 94.210938 L 198.066406 110.210938 L 178.066406 110.210938 Z M 178.066406 94.210938 "/>
<g style="fill:rgb(0%,0%,100%);fill-opacity:1;">
  <use xlink:href="#glyph0-1" x="178.066406" y="106.586914"/>
  <use xlink:href="#glyph0-3" x="188.036133" y="106.586914"/>
</g>
<path style="fill:none;stroke-width:1.2;stroke-linecap:butt;stroke-linejoin:miter;stroke:rgb(0%,0%,0%);stroke-opacity:1;stroke-miterlimit:10;" d="M 207.238281 129.75 L 192.976562 160.117188 "/>
<path style="fill:none;stroke-width:1.2;stroke-linecap:butt;stroke-linejoin:miter;stroke:rgb(0%,0%,0%);stroke-opacity:1;stroke-miterlimit:10;" d="M 212.957031 136.140625 L 201.546875 160.4375 "/>
<path style="fill:none;stroke-width:1.2;stroke-linecap:butt;stroke-linejoin:miter;stroke:rgb(0%,0%,0%);stroke-opacity:1;stroke-miterlimit:10;" d="M 240.667969 126.914062 L 207.238281 129.75 "/>
<path style="fill:none;stroke-width:1.2;stroke-linecap:butt;stroke-linejoin:miter;stroke:rgb(0%,0%,0%);stroke-opacity:1;stroke-miterlimit:10;" d="M 192.976562 160.117188 L 212.148438 187.65625 "/>
<path style="fill:none;stroke-width:1.2;stroke-linecap:butt;stroke-linejoin:miter;stroke:rgb(0%,0%,0%);stroke-opacity:1;stroke-miterlimit:10;" d="M 212.148438 187.65625 L 245.578125 184.820312 "/>
<path style="fill:none;stroke-width:1.2;stroke-linecap:butt;stroke-linejoin:miter;stroke:rgb(0%,0%,0%);stroke-opacity:1;stroke-miterlimit:10;" d="M 214.824219 179.503906 L 241.570312 177.238281 "/>
<path style="fill:none;stroke-width:1.2;stroke-linecap:butt;stroke-linejoin:miter;stroke:rgb(0%,0%,0%);stroke-opacity:1;stroke-miterlimit:10;" d="M 245.578125 184.820312 L 259.839844 154.449219 "/>
<path style="fill:none;stroke-width:1.2;stroke-linecap:butt;stroke-linejoin:miter;stroke:rgb(0%,0%,0%);stroke-opacity:1;stroke-miterlimit:10;" d="M 245.578125 184.820312 L 255.164062 198.585938 "/>
<path style="fill:none;stroke-width:1.2;stroke-linecap:butt;stroke-linejoin:miter;stroke:rgb(20%,80%,80%);stroke-opacity:1;stroke-miterlimit:10;" d="M 255.164062 198.585938 L 264.75 212.355469 "/>
<path style="fill:none;stroke-width:1.2;stroke-linecap:butt;stroke-linejoin:miter;stroke:rgb(0%,0%,0%);stroke-opacity:1;stroke-miterlimit:10;" d="M 259.839844 154.449219 L 240.667969 126.914062 "/>
<path style="fill:none;stroke-width:1.2;stroke-linecap:butt;stroke-linejoin:miter;stroke:rgb(0%,0%,0%);stroke-opacity:1;stroke-miterlimit:10;" d="M 251.445312 156.207031 L 236.105469 134.179688 "/>
<path style=" stroke:none;fill-rule:nonzero;fill:rgb(100%,100%,100%);fill-opacity:1;" d="M 260.75 204.355469 L 268.75 204.355469 L 268.75 220.355469 L 260.75 220.355469 Z M 260.75 204.355469 "/>
<g style="fill:rgb(20%,80%,80%);fill-opacity:1;">
  <use xlink:href="#glyph0-4" x="260.75" y="216.731445"/>
</g>
</g>
</svg>

<svg xmlns="http://www.w3.org/2000/svg" xmlns:xlink="http://www.w3.org/1999/xlink" width="300pt" height="300pt" viewBox="0 0 300 300"><defs><symbol overflow="visible"><path d="M.64 2.297v-11.47h6.5v11.47zm.735-.72h5.047V-8.436H1.375zm0 0"/></symbol><symbol overflow="visible" id="a"><path d="M1.28-9.484H3l4.203 7.937v-7.937h1.25V0H6.72L2.515-7.922V0H1.28zm0 0"/></symbol><symbol overflow="visible" id="b"><path d="M5.125-8.61c-.938 0-1.684.352-2.234 1.047-.542.688-.812 1.633-.812 2.83 0 1.198.27 2.147.813 2.842.55.687 1.297 1.03 2.235 1.03.926 0 1.66-.343 2.203-1.03.55-.696.828-1.645.828-2.844 0-1.196-.277-2.14-.828-2.829-.543-.695-1.277-1.046-2.203-1.046zm0-1.046c1.32 0 2.38.45 3.172 1.344.8.898 1.203 2.09 1.203 3.578 0 1.5-.402 2.7-1.203 3.593C7.504-.255 6.445.186 5.125.186c-1.336 0-2.402-.44-3.203-1.328C1.13-2.036.734-3.235.734-4.735c0-1.49.395-2.68 1.188-3.579.8-.894 1.867-1.343 3.203-1.343zm0 0"/></symbol><symbol overflow="visible" id="c"><path d="M1.28-9.484h1.282v3.89H7.22v-3.89H8.5V0H7.22v-4.516H2.562V0H1.28zm0 0"/></symbol><symbol overflow="visible" id="d"><path d="M1.28-9.484h5.44v1.093H2.562v2.78h3.75v1.08h-3.75V0H1.28zm0 0"/></symbol></defs><g><path fill="#fff" d="M0 0h300v300H0z"/><path d="M142.16 202.19l-33.293-4.178M108.867 198.012l-16.187-29.39M100.332 198.883l-12.95-23.512" stroke-width="1.2" stroke="#000" stroke-miterlimit="10" fill="none"/><path d="M85.918 222.488l11.477-12.238" stroke-width="1.2" stroke="#f00" stroke-miterlimit="10" fill="none"/><path d="M97.395 210.25l11.472-12.238M92.68 168.62l-32.953 6.317M92.68 168.62l14.26-30.366M59.727 174.938l-2.09 16.644" stroke-width="1.2" stroke="#000" stroke-miterlimit="10" fill="none"/><path d="M57.637 191.582l-2.086 16.645" stroke-width="1.2" stroke="#00f" stroke-miterlimit="10" fill="none"/><path d="M67.14 179.25l-1.667 13.316" stroke-width="1.2" stroke="#000" stroke-miterlimit="10" fill="none"/><path d="M65.473 192.566L63.8 205.883" stroke-width="1.2" stroke="#00f" stroke-miterlimit="10" fill="none"/><path d="M59.727 174.938l-24.477-22.95" stroke-width="1.2" stroke="#000" stroke-miterlimit="10" fill="none"/><path d="M55.55 208.227l15.184 7.132" stroke-width="1.2" stroke="#00f" stroke-miterlimit="10" fill="none"/><path d="M70.734 215.36l15.184 7.128" stroke-width="1.2" stroke="#f00" stroke-miterlimit="10" fill="none"/><path d="M50.55 200.227h10v16h-10zm0 0" fill="#fff"/><use xlink:href="#a" x="50.551" y="212.603" fill="#00f"/><path d="M80.918 214.488h11v16h-11zm0 0" fill="#fff"/><use xlink:href="#b" x="80.918" y="226.864" fill="#f00"/><path d="M106.94 138.254l33.43-2.836M109.617 130.102l26.746-2.266" stroke-width="1.2" stroke="#000" stroke-miterlimit="10" fill="none"/><path d="M87.77 110.715l9.585 13.77" stroke-width="1.2" stroke="#00f" stroke-miterlimit="10" fill="none"/><path d="M97.355 124.484l9.586 13.77M140.37 135.418l14.263-30.37M154.633 105.047l-9.586-13.766" stroke-width="1.2" stroke="#000" stroke-miterlimit="10" fill="none"/><path d="M145.047 91.28l-9.582-13.768" stroke-width="1.2" stroke="#00f" stroke-miterlimit="10" fill="none"/><path d="M146.238 106.805L138.57 95.79" stroke-width="1.2" stroke="#000" stroke-miterlimit="10" fill="none"/><path d="M138.57 95.79l-7.668-11.013" stroke-width="1.2" stroke="#00f" stroke-miterlimit="10" fill="none"/><path d="M154.633 105.047l16.72-1.418" stroke-width="1.2" stroke="#000" stroke-miterlimit="10" fill="none"/><path d="M171.352 103.63l16.714-1.42M135.465 77.512l-16.72 1.418" stroke-width="1.2" stroke="#00f" stroke-miterlimit="10" fill="none"/><path d="M118.746 78.93l-16.715 1.418" stroke-width="1.2" stroke="#000" stroke-miterlimit="10" fill="none"/><path d="M130.465 69.512h10v16h-10zm0 0" fill="#fff"/><use xlink:href="#a" x="130.465" y="81.888" fill="#00f"/><path d="M102.03 80.348L94.903 95.53" stroke-width="1.2" stroke="#000" stroke-miterlimit="10" fill="none"/><path d="M94.902 95.53l-7.132 15.185" stroke-width="1.2" stroke="#00f" stroke-miterlimit="10" fill="none"/><path d="M107.75 86.738l-5.703 12.15" stroke-width="1.2" stroke="#000" stroke-miterlimit="10" fill="none"/><path d="M102.047 98.887l-5.703 12.148" stroke-width="1.2" stroke="#00f" stroke-miterlimit="10" fill="none"/><path d="M82.77 102.715h10v16h-10zm0 0" fill="#fff"/><use xlink:href="#a" x="82.77" y="115.091" fill="#00f"/><path d="M188.066 102.21l9.586 13.77" stroke-width="1.2" stroke="#00f" stroke-miterlimit="10" fill="none"/><path d="M197.652 115.98l9.586 13.77" stroke-width="1.2" stroke="#000" stroke-miterlimit="10" fill="none"/><path d="M178.066 94.21h20v16h-20zm0 0" fill="#fff"/><g fill="#00f"><use xlink:href="#a" x="178.066" y="106.587"/><use xlink:href="#c" x="188.036" y="106.587"/></g><path d="M207.238 129.75l-14.26 30.367M212.957 136.14l-11.41 24.298M240.668 126.914l-33.43 2.836M192.977 160.117l19.17 27.54M212.148 187.656l33.43-2.836M214.824 179.504l26.746-2.266M245.578 184.82l14.262-30.37M245.578 184.82l9.586 13.766" stroke-width="1.2" stroke="#000" stroke-miterlimit="10" fill="none"/><path d="M255.164 198.586l9.586 13.77" stroke-width="1.2" stroke="#3cc" stroke-miterlimit="10" fill="none"/><path d="M259.84 154.45l-19.172-27.536M251.445 156.207l-15.34-22.027" stroke-width="1.2" stroke="#000" stroke-miterlimit="10" fill="none"/><path d="M260.75 204.355h8v16h-8zm0 0" fill="#fff"/><use xlink:href="#d" x="260.75" y="216.731" fill="#3cc"/></g></svg>
